img/catalog/catalog green/catalog1..svg

<svg width="285" height="285" viewBox="0 0 285 285" fill="none" xmlns="http://www.w3.org/2000/svg">
<path d="M213.267 93.3241C213.743 92.2436 213.593 91.8205 212.341 90.6657C211.748 90.1356 211.109 89.3307 210.888 88.8833C210.553 88.1569 210.559 88.0901 211.059 88.1622C213.746 88.5662 217.126 87.9671 217.782 86.9958C218.5 85.9196 217.346 83.8444 215.798 83.4404C215.162 83.2445 214.543 82.9963 213.947 82.6982L212.89 82.151L214.115 79.7684C215.092 77.8841 215.298 77.2235 215.129 76.5396C214.831 75.3446 214.351 75.1802 212.534 75.6309C211.358 75.9235 210.46 76.3657 209.216 77.2659C208.287 77.935 207.183 78.6031 206.759 78.7504C206.078 79.0071 206.001 78.9625 205.867 78.25C204.994 73.7848 204.69 73.1814 203.318 73.0404C202.086 72.9344 201.193 73.8526 199.863 76.5915C199.243 77.8831 198.561 79.0155 198.366 79.1088C198.153 79.2064 197.158 78.8395 196.168 78.2977C193.131 76.6679 191.764 76.4601 190.857 77.5618C190.538 77.9477 190.538 78.2309 190.97 79.3283C191.501 80.7503 191.926 81.2137 194.262 83.0396L195.789 84.2357L194.972 85.3576L194.177 86.4741L187.985 88.0138C184.579 88.8621 180.709 89.6913 179.394 89.8652C175.653 90.336 168.492 89.7528 165.723 88.756C163.505 87.9512 159.319 85.4032 158.046 84.0788C156.056 81.9909 153.401 80.8351 150.96 80.9814C149.408 81.0875 148.676 80.3452 148.121 78.1185C147.714 76.4908 147.71 76.0317 148.165 74.0806C148.455 72.8707 149.077 70.9663 149.593 69.8741C150.797 67.1458 150.901 66.2445 150.259 63.6689C149.596 61.0106 149.06 60.3563 145.193 57.3354C140.812 53.9167 138.325 52.9158 134.776 53.0939L133.151 53.1692L130.946 55.1404C129.246 56.6779 128.473 57.6153 127.491 59.3903C125.425 63.056 124.917 64.6253 125.303 66.0844C125.653 67.3971 126.503 68.5232 128.653 70.4595C130.689 72.2939 132.445 75.3806 133.174 78.3942C134.049 81.8934 133.669 84.7701 131.887 88.1675C130.713 90.407 129.789 91.0082 125.454 92.2616C119.819 93.9253 107.493 96.3557 105.213 96.2655C104.197 96.2337 103.025 96.2846 102.592 96.3917C101.539 96.6536 98.0678 95.8318 96.8207 95.0482C95.4643 94.1819 94.8876 93.1873 94.2864 90.776C93.6129 88.0774 92.4434 86.3766 90.9011 85.8188C89.4257 85.2664 88.7034 85.2706 87.5372 85.7807C86.6874 86.1454 86.3687 86.5515 85.3161 88.7391C83.709 92.0495 83.368 92.3528 81.4922 92.2075C80.687 92.1449 78.5775 91.7717 76.7877 91.3592C71.8665 90.2628 69.6476 90.8587 70.218 93.1449C70.5271 94.3823 70.986 94.8149 72.7599 95.4236C74.4105 95.9771 76.9683 97.4383 76.7962 97.7246C76.7346 97.8306 75.8626 97.9367 74.8205 97.9748C72.369 98.0809 68.3549 98.7722 67.2301 99.2716C66.699 99.5123 66.2592 99.9503 66.1042 100.383C65.6963 101.557 66.4642 102.175 68.8011 102.579C70.5855 102.88 71.0604 102.849 73.274 102.32C76.2248 101.586 77.8042 101.414 77.7777 101.835C77.7575 102.103 76.3118 102.9 71.0529 105.455C68.7872 106.565 68.0639 107.533 68.7384 108.569C69.5266 109.795 70.6673 109.796 75.6204 108.569C78.5722 107.835 80.0996 107.542 80.1453 107.728C80.2229 108.037 78.2408 109.669 75.6905 111.396C73.7031 112.744 73.0212 113.788 73.4843 114.683C73.7141 115.048 74.0613 115.324 74.4689 115.467C75.3304 115.668 79.2488 114.606 81.4253 113.558C83.2416 112.668 86.5089 110.478 87.5626 109.422C87.9089 109.052 89.4831 107.983 91.0424 107.026L93.9018 105.308L97.0077 104.843C98.721 104.591 100.8 104.403 101.636 104.419C103.633 104.426 108.074 104.832 109.368 105.1C109.925 105.225 111.117 105.344 112.024 105.381C112.924 105.421 113.819 105.52 114.706 105.677C115.268 105.822 116.878 105.947 118.291 105.989C121.531 106.059 122.455 106.333 123.866 107.601C126.238 109.722 126.655 110.606 128.743 117.92C130.549 124.19 131.381 126.477 133.858 131.835C134.338 132.877 135.558 137.08 137.346 143.967L140.081 154.491L140.005 157.617C139.919 161.664 139.821 162.236 138.704 164.877C137.603 167.492 137.272 168.012 135.388 169.947C134.06 171.305 130.618 173.671 129.585 173.928C128.966 174.082 125.827 176.7 125.311 177.533C124.78 178.32 125.031 179.747 125.752 180.093C126.077 180.253 127.109 180.083 129.307 179.493C131.981 178.784 134.261 178.524 134.359 178.916C134.374 178.977 134.105 179.658 133.769 180.419C132.765 182.724 133.238 184.728 134.869 185.178C135.622 185.39 135.761 185.329 137.154 184.151C138.405 183.097 139.374 182.505 139.421 182.777C139.421 182.797 139.384 183.334 139.322 183.962C139.093 186.12 140.172 188.675 141.433 188.995C142.389 189.218 144.162 188.951 145.127 188.427C146.278 187.768 147.704 185.401 148.175 183.337C148.356 182.483 148.6 181.788 148.723 181.756C149.013 181.685 151.429 184.608 152.485 186.292C152.928 187.013 153.573 187.75 153.923 187.926C154.903 188.426 155.522 188.097 156.422 186.604C157.243 185.241 157.342 184.581 157.132 181.727C157.006 179.81 157.568 179.78 160.027 181.554C161.1 182.337 162.171 183.038 162.429 183.101C163.11 183.282 164.029 182.66 164.175 181.923C164.366 180.934 162.455 177.667 160.718 175.977C159.94 175.235 158.527 173.787 157.569 172.755L155.828 170.89L153.397 160.532C152.06 154.824 150.889 149.251 150.787 148.138C150.296 142.745 151.234 139.033 153.143 138.866C153.612 138.814 153.87 139.056 154.417 140.123C154.778 140.865 155.849 142.962 156.766 144.789C157.683 146.616 159.145 149.143 159.991 150.42C160.851 151.673 162.026 153.389 162.587 154.238C163.494 155.589 163.736 156.207 164.553 159.482C165.57 163.563 165.581 164.129 164.72 169.989C164.439 171.765 164.464 172.746 164.813 174.495C165.219 176.56 165.291 176.762 166.039 177.297C166.812 177.849 166.92 177.845 169.263 177.219L171.673 176.598L173.033 177.484C174.106 178.181 174.581 178.325 175.22 178.166C176.047 177.961 176.702 177.163 177.054 175.939C177.189 175.425 177.266 175.383 177.767 175.632C178.085 175.77 178.756 176.436 179.277 177.116C179.879 177.858 180.488 178.368 180.947 178.451C181.591 178.575 181.747 178.493 182.18 177.772C182.553 177.154 182.62 176.548 182.461 175.207C182.333 174.253 182.298 173.323 182.339 173.138C182.505 172.659 183.144 172.587 184.031 172.98C184.924 173.392 185.765 173.249 186.323 172.585C186.747 172.086 186.612 171.2 185.882 169.501C185.227 167.933 185.409 167.517 186.807 167.584C187.647 167.616 188.246 167.903 189.144 168.689C190.582 169.885 191.34 170.025 192.079 169.207C192.44 168.81 192.56 168.408 192.421 167.853C192.143 166.739 189.463 163.554 187.777 162.332C185.88 160.967 181.994 156.811 181.777 155.946C181.732 155.761 181.047 154.859 180.273 153.957C178.063 151.334 173.492 144.702 171.025 140.523C170.077 138.921 169.943 138.472 167.738 129.02C166.058 121.757 165.431 118.629 165.34 117.038C165.285 115.848 165.11 113.751 164.978 112.336C164.738 109.792 164.396 105.868 164.212 103.379C164.156 102.627 164.193 101.633 164.297 101.17L164.473 100.294L167.826 99.5049C170.665 98.8422 171.517 98.7404 173.327 98.8804C176.122 99.1041 178.31 98.9111 181.324 98.1614C183.021 97.7881 184.739 97.5144 186.468 97.3418C188.14 97.1891 192.174 96.4055 197.324 95.2561C206.106 93.2912 205.745 93.3379 209.64 94.0981C211.955 94.5689 212.771 94.4109 213.267 93.3241Z" fill="#333F48"/>
<path d="M117.748 249.5H121.444V236.108H126.556V232.7H112.636V236.108H117.748V249.5ZM135.111 249.788C137.439 249.788 139.167 248.876 140.367 247.388L138.279 245.54C137.271 246.476 136.383 246.86 135.159 246.86C133.527 246.86 132.375 245.996 132.015 244.34H140.967C140.991 244.004 141.015 243.668 141.015 243.38C141.015 239.732 139.047 236.396 134.751 236.396C131.007 236.396 128.391 239.42 128.391 243.092C128.391 247.076 131.247 249.788 135.111 249.788ZM131.967 242.06C132.255 240.404 133.239 239.324 134.751 239.324C136.287 239.324 137.247 240.428 137.463 242.06H131.967ZM145.27 236.636C145.27 245.756 144.55 246.548 143.182 246.548C143.014 246.548 142.558 246.5 142.414 246.476L142.174 249.428C142.654 249.548 143.542 249.644 144.022 249.644C147.238 249.644 148.702 248.276 148.702 239.756H151.966V249.5H155.614V236.636H145.27ZM165.186 249.788C169.194 249.788 172.17 246.788 172.17 243.092C172.17 239.348 169.218 236.396 165.234 236.396C161.226 236.396 158.25 239.396 158.25 243.092C158.25 246.836 161.202 249.788 165.186 249.788ZM165.234 246.644C163.218 246.644 161.85 244.988 161.85 243.092C161.85 241.148 163.098 239.54 165.186 239.54C167.202 239.54 168.57 241.196 168.57 243.092C168.57 245.036 167.322 246.644 165.234 246.644Z" fill="#333F48"/>
</svg>

<svg width="285" height="285" fill="none" xmlns="http://www.w3.org/2000/svg"><path d="M213.267 93.324c.476-1.08.326-1.504-.926-2.658-.593-.53-1.232-1.335-1.453-1.783-.335-.726-.329-.793.171-.72 2.687.403 6.067-.196 6.723-1.167.718-1.076-.436-3.152-1.984-3.556a12.1 12.1 0 0 1-1.851-.742l-1.057-.547 1.225-2.383c.977-1.884 1.183-2.544 1.014-3.228-.298-1.195-.778-1.36-2.595-.91-1.176.294-2.074.736-3.318 1.636-.929.669-2.033 1.337-2.457 1.484-.681.257-.758.213-.892-.5-.873-4.465-1.177-5.069-2.549-5.21-1.232-.106-2.125.813-3.455 3.551-.62 1.292-1.302 2.425-1.497 2.518-.213.097-1.208-.27-2.198-.811-3.037-1.63-4.404-1.838-5.311-.736-.319.386-.319.669.113 1.766.531 1.422.956 1.886 3.292 3.712l1.527 1.196-.817 1.122-.795 1.116-6.192 1.54c-3.406.848-7.276 1.677-8.591 1.851-3.741.471-10.902-.112-13.671-1.109-2.218-.805-6.404-3.353-7.677-4.677-1.99-2.088-4.645-3.244-7.086-3.098-1.552.107-2.284-.636-2.839-2.862-.407-1.628-.411-2.087.044-4.038.29-1.21.912-3.115 1.428-4.207 1.204-2.728 1.308-3.63.666-6.205-.663-2.658-1.199-3.313-5.066-6.334-4.381-3.418-6.868-4.42-10.417-4.241l-1.625.075-2.205 1.971c-1.7 1.538-2.473 2.475-3.455 4.25-2.066 3.666-2.574 5.235-2.188 6.694.35 1.313 1.2 2.44 3.35 4.376 2.036 1.834 3.792 4.92 4.521 7.934.875 3.5.495 6.376-1.287 9.773-1.174 2.24-2.098 2.841-6.433 4.095-5.635 1.663-17.961 4.094-20.241 4.004-1.016-.032-2.188.019-2.621.126-1.053.262-4.524-.56-5.771-1.344-1.357-.866-1.933-1.86-2.535-4.272-.673-2.699-1.843-4.4-3.385-4.957-1.475-.553-2.198-.548-3.364-.038-.85.364-1.168.77-2.22 2.958-1.608 3.31-1.949 3.614-3.825 3.468-.805-.062-2.915-.435-4.704-.848-4.921-1.096-7.14-.5-6.57 1.786.31 1.237.768 1.67 2.542 2.279 1.65.553 4.208 2.014 4.036 2.3-.061.107-.933.213-1.976.25-2.451.107-6.465.798-7.59 1.298-.531.24-.97.678-1.126 1.111-.408 1.174.36 1.792 2.697 2.196 1.784.301 2.26.27 4.473-.259 2.95-.734 4.53-.906 4.504-.485-.02.268-1.466 1.065-6.725 3.62-2.266 1.11-2.99 2.078-2.315 3.114.789 1.226 1.93 1.227 6.882 0 2.952-.734 4.48-1.027 4.525-.841.078.309-1.904 1.941-4.454 3.668-1.988 1.348-2.67 2.392-2.207 3.287.23.365.577.641.985.784.861.201 4.78-.861 6.956-1.909 1.817-.89 5.084-3.08 6.138-4.136.346-.37 1.92-1.439 3.48-2.396l2.859-1.718 3.106-.465c1.713-.252 3.792-.44 4.628-.424 1.997.007 6.438.413 7.732.681.557.125 1.749.244 2.656.281.9.04 1.795.139 2.682.296.562.145 2.172.27 3.585.312 3.24.07 4.164.344 5.575 1.612 2.372 2.121 2.789 3.005 4.877 10.319 1.806 6.27 2.638 8.557 5.115 13.915.48 1.042 1.7 5.245 3.488 12.132l2.735 10.524-.076 3.126c-.086 4.047-.184 4.619-1.301 7.26-1.101 2.615-1.432 3.135-3.316 5.07-1.328 1.358-4.77 3.724-5.803 3.981-.619.154-3.758 2.772-4.274 3.605-.531.787-.28 2.214.441 2.56.325.16 1.357-.01 3.555-.6 2.674-.709 4.954-.969 5.052-.577.015.061-.254.742-.59 1.503-1.004 2.305-.531 4.309 1.1 4.759.753.212.892.151 2.285-1.027 1.251-1.054 2.22-1.646 2.267-1.374 0 .02-.037.557-.099 1.185-.229 2.158.85 4.713 2.111 5.033.956.223 2.729-.044 3.694-.568 1.151-.659 2.577-3.026 3.048-5.09.181-.854.425-1.549.548-1.581.29-.071 2.706 2.852 3.762 4.536.443.721 1.088 1.458 1.438 1.634.98.5 1.599.171 2.499-1.322.821-1.363.92-2.023.71-4.877-.126-1.917.436-1.947 2.895-.173 1.073.783 2.144 1.484 2.402 1.547.681.181 1.6-.441 1.746-1.178.191-.989-1.72-4.256-3.457-5.946a91.201 91.201 0 0 1-3.149-3.222l-1.741-1.865-2.431-10.358c-1.337-5.708-2.508-11.281-2.61-12.394-.491-5.393.447-9.105 2.356-9.272.469-.052.727.19 1.274 1.257.361.742 1.432 2.839 2.349 4.666.917 1.827 2.379 4.354 3.225 5.631.86 1.253 2.035 2.969 2.596 3.818.907 1.351 1.149 1.969 1.966 5.244 1.017 4.081 1.028 4.647.167 10.507-.281 1.776-.256 2.757.093 4.506.406 2.065.478 2.267 1.226 2.802.773.552.881.548 3.224-.078l2.41-.621 1.36.886c1.073.697 1.548.841 2.187.682.827-.205 1.482-1.003 1.834-2.227.135-.514.212-.556.713-.307.318.138.989.804 1.51 1.484.602.742 1.211 1.252 1.67 1.335.644.124.8.042 1.233-.679.373-.618.44-1.224.281-2.565-.128-.954-.163-1.884-.122-2.069.166-.479.805-.551 1.692-.158.893.412 1.734.269 2.292-.395.424-.499.289-1.385-.441-3.084-.655-1.568-.473-1.984.925-1.917.84.032 1.439.319 2.337 1.105 1.438 1.196 2.196 1.336 2.935.518.361-.397.481-.799.342-1.354-.278-1.114-2.958-4.299-4.644-5.521-1.897-1.365-5.783-5.521-6-6.386-.045-.185-.73-1.087-1.504-1.989-2.21-2.623-6.781-9.255-9.248-13.434-.948-1.602-1.082-2.051-3.287-11.503-1.68-7.263-2.307-10.391-2.398-11.982-.055-1.19-.23-3.287-.362-4.702-.24-2.544-.582-6.468-.766-8.957-.056-.752-.019-1.746.085-2.209l.176-.876 3.353-.79c2.839-.662 3.691-.764 5.501-.624 2.795.224 4.983.031 7.997-.719a44.54 44.54 0 0 1 5.144-.82c1.672-.152 5.706-.935 10.856-2.085 8.782-1.965 8.421-1.918 12.316-1.158 2.315.47 3.131.313 3.627-.774ZM117.748 249.5h3.696v-13.392h5.112V232.7h-13.92v3.408h5.112V249.5Zm17.363.288c2.328 0 4.056-.912 5.256-2.4l-2.088-1.848c-1.008.936-1.896 1.32-3.12 1.32-1.632 0-2.784-.864-3.144-2.52h8.952c.024-.336.048-.672.048-.96 0-3.648-1.968-6.984-6.264-6.984-3.744 0-6.36 3.024-6.36 6.696 0 3.984 2.856 6.696 6.72 6.696Zm-3.144-7.728c.288-1.656 1.272-2.736 2.784-2.736 1.536 0 2.496 1.104 2.712 2.736h-5.496Zm13.303-5.424c0 9.12-.72 9.912-2.088 9.912a7.59 7.59 0 0 1-.768-.072l-.24 2.952c.48.12 1.368.216 1.848.216 3.216 0 4.68-1.368 4.68-9.888h3.264v9.744h3.648v-12.864H145.27Zm19.916 13.152c4.008 0 6.984-3 6.984-6.696 0-3.744-2.952-6.696-6.936-6.696-4.008 0-6.984 3-6.984 6.696 0 3.744 2.952 6.696 6.936 6.696Zm.048-3.144c-2.016 0-3.384-1.656-3.384-3.552 0-1.944 1.248-3.552 3.336-3.552 2.016 0 3.384 1.656 3.384 3.552 0 1.944-1.248 3.552-3.336 3.552Z" fill="#333F48"/></svg>
